Adwaita++/apps/scalable/bittorrent.svg

<svg enable-background="new" height="128" viewBox="0 0 128 128" width="128" xmlns="http://www.w3.org/2000/svg">
  <g transform="matrix(.86666673 0 0 .86666673 9.533387 -142.40002)">
    <path d="m123.99993 237a59.999995 59.999995 0 0 1 -59.999985 60 59.999995 59.999995 0 0 1 -60.0000069-60 59.999995 59.999995 0 0 1 60.0000069-59.99999 59.999995 59.999995 0 0 1 59.999985 59.99999z" fill="#deddda"/>
    <rect fill="#d5d3cf" height="114" rx="56" width="112" x="8" y="179"/>
    <path d="m123.99993 235a59.999995 59.999995 0 0 1 -59.999985 59.99999 59.999995 59.999995 0 0 1 -60.0000069-59.99999 59.999995 59.999995 0 0 1 60.0000069-60 59.999995 59.999995 0 0 1 59.999985 60z" fill="#f6f5f4"/>
  </g>
  <g transform="translate(-.000018 1.110146)">
    <circle cx="65" cy="61.023" fill="#8c59d9" r="46.8"/>
    <path d="m65.000003 14.356217a46.800003 46.800003 0 0 0 -46.800003 46.800003 46.800003 46.800003 0 0 0 .03597 1.01478 46.800003 46.800003 0 0 1 46.764036-46.08145 46.800003 46.800003 0 0 1 46.764034 45.784383 46.800003 46.800003 0 0 0 .036-.717713 46.800003 46.800003 0 0 0 -46.800045-46.800003z" opacity=".1"/>
  </g>
  <g enable-background="new" fill="#f6f5f4" stroke="#fff" transform="matrix(.99999996887 0 0 .99999996887 .00000021918 .00000005525)">
    <path d="m91.318359 100.77539a46.800003 46.800003 0 0 0 2.773438-1.982421 46.800003 46.800003 0 0 0 3.513672-3.087891 46.800003 46.800003 0 0 0 .154297-.166016h-30.587891c-12.164951 0-23.396041-6.484372-29.478516-17.019531-6.082478-10.535158-6.082478-23.503906 0-34.039062 6.082475-10.535158 17.313565-17.017578 29.478516-17.017578v-5.236329c-14.027442 0-26.999945 7.488598-34.013672 19.636719-7.01372 12.148121-7.01372 27.127271 0 39.275391 7.013727 12.14812 19.98623 19.636718 34.013672 19.636718z"/>
    <path d="m102.29883 90.302734a46.800003 46.800003 0 0 0 1.32617-1.74414 46.800003 46.800003 0 0 0 2.14062-3.492188h-38.593745c-9.533007 0-18.111679-5.728267-21.765625-14.533203-3.653946-8.80493-1.651863-18.924067 5.080078-25.673828 6.731936-6.749752 16.845589-8.779093 25.660156-5.148437l1.994141-4.839844c-4.034233-1.661671-8.297673-2.351118-12.484375-2.128906-6.977836.370357-13.741854 3.271231-18.876953 8.419921-8.216154 8.237912-10.668528 20.632719-6.208985 31.378907 4.459544 10.746197 14.966774 17.761718 26.601563 17.761718z"/>
    <path d="m108.29883 79.830078a46.800003 46.800003 0 0 0 1.41015-3.867187 46.800003 46.800003 0 0 0 .34961-1.371094h-42.886715c-5.938034 0-11.109611-3.967429-12.646484-9.703125-1.536874-5.735696.957124-11.755596 6.099609-14.72461 5.142485-2.969013 11.605866-2.118737 15.804688 2.080079l3.701171-3.703125c-3.66055-3.660544-8.585265-5.501029-13.515625-5.355469-2.958213.087341-5.917477.890324-8.607422 2.443359-7.173177 4.141441-10.684774 12.61459-8.541015 20.615235 2.143766 8.000644 9.422203 13.585937 17.705078 13.585937z"/>
  </g>
  <path d="m65.000003 14.356217a46.800003 46.800003 0 0 0 -46.800003 46.800003 46.800003 46.800003 0 0 0 .03597 1.01478 46.800003 46.800003 0 0 1 46.764036-46.08145 46.800003 46.800003 0 0 1 46.764034 45.784383 46.800003 46.800003 0 0 0 .036-.717713 46.800003 46.800003 0 0 0 -46.800045-46.800003z" opacity=".1" transform="translate(-.000018 1.110146)"/>
</svg>

<svg xmlns="http://www.w3.org/2000/svg" xmlns:xlink="http://www.w3.org/1999/xlink" style="enable-background:new" width="128" height="128" version="1.0" viewBox="0 0 128 128">
 <title id="title4162">
  Adwaita Icon Template
 </title>
 <defs>
  <linearGradient id="linearGradient950">
   <stop style="stop-color:#9a9996" id="stop946" offset="0"/>
   <stop style="stop-color:#77767b" id="stop948" offset="1"/>
  </linearGradient>
  <linearGradient id="linearGradient1001" x1="1660.857" x2="1662.99" y1="806.297" y2="812.882" gradientTransform="matrix(1.8293937,-0.81599442,0.81599442,1.8293937,-3645.9624,100.02949)" gradientUnits="userSpaceOnUse" xlink:href="#linearGradient950"/>
  <clipPath id="clipPath5154" clipPathUnits="userSpaceOnUse">
   <circle cx="128" cy="924.362" r="109.647" style="fill:url(#radialGradient5158)"/>
  </clipPath>
  <clipPath id="clipPath977" clipPathUnits="userSpaceOnUse">
   <circle cx="128" cy="924.362" r="109.647" style="fill:url(#radialGradient5158)"/>
  </clipPath>
  <clipPath id="clipPath4688" clipPathUnits="userSpaceOnUse">
   <path d="m 106.42383,889.60156 c -2.2448,-0.0524 -4.09304,1.75264 -4.09375,3.99805 v 32.64453 32.64453 c -4e-5,3.07923 3.33305,5.004 6,3.46485 l 28.26953,-16.32227 28.27148,-16.32227 c 2.66559,-1.54001 2.66559,-5.38772 0,-6.92773 l -28.27148,-16.32227 -28.26953,-16.32226 c -0.58054,-0.3353 -1.23603,-0.51932 -1.90625,-0.53516 z" style="fill:url(#radialGradient4692);stroke:#a7003f;stroke-linecap:round;stroke-linejoin:round"/>
  </clipPath>
  <clipPath id="clipPath4564" clipPathUnits="userSpaceOnUse">
   <circle style="fill:url(#radialGradient4568)" cx="128" cy="924.362" r="109.647"/>
  </clipPath>
  <clipPath id="clipPath6215" clipPathUnits="userSpaceOnUse">
   <path d="m 105.17325,806.18572 c -3.06859,0.56361 -6.11393,1.24721 -9.129005,2.04923 -3.838255,1.06506 -7.62084,2.32142 -11.333578,3.76438 -3.712189,1.44307 -7.34989,3.07087 -10.899472,4.87732 -3.549153,1.80656 -7.005749,3.78947 -10.35684,5.94129 -3.351877,2.15253 -6.593991,4.47137 -9.714191,6.94783 -3.119992,2.47544 -6.114241,5.10535 -8.971529,7.87988 -0.367219,0.38909 -0.731819,0.78065 -1.093777,1.17464 2.60205,17.85956 16.832359,40.03752 30.863064,55.74236 -4.76734,8.84435 -7.265993,18.73329 -7.272057,28.78068 0.02104,2.87431 0.246096,5.7435 0.673482,8.58593 -20.257302,-9.18513 -43.077023,-26.53494 -52.798465,-47.36396 -0.440667,1.15171 -0.863474,2.31018 -1.268271,3.47498 -1.176789,3.80495 -2.162562,7.66637 -2.953625,11.56979 -0.79154,3.90311 -1.3874065,7.84335 -1.7853678,11.80598 -0.39733,3.96334 -0.5961891,7.94407 -0.5958321,11.92728 -4.394e-4,2.81936 0.098928,5.63785 0.2979155,8.45018 0.282275,3.97319 0.763088,7.92978 1.4406374,11.85493 0.625626,3.51826 1.408798,7.00668 2.347153,10.45473 16.778133,6.68355 43.114514,5.45001 63.748015,1.14301 6.818545,11.02763 16.987182,19.58379 29.018153,24.41667 -18.071844,12.93645 -44.490188,24.02095 -67.37308,22.03245 1.384097,1.665 2.813203,3.2921 4.285735,4.8794 2.774977,2.8571 5.691103,5.5737 8.737453,8.1395 3.046107,2.5658 6.218619,4.9777 9.505651,7.2266 3.287242,2.2488 6.684891,4.3319 10.180217,6.2413 3.495379,1.9096 7.084075,3.6433 10.752641,5.1944 3.66896,1.5509 7.413193,2.9174 11.218668,4.0942 1.438565,0.3959 2.884421,0.7648 4.336807,1.1066 14.138748,-11.1844 26.206378,-34.5828 32.780368,-54.56406 12.95816,-0.38251 25.45395,-4.90132 35.65955,-12.89544 2.15922,22.12638 -1.46693,50.5581 -14.64692,69.3832 3.06859,-0.5636 6.11393,-1.2473 9.129,-2.0493 3.83826,-1.0651 7.62084,-2.3214 11.33358,-3.7644 3.71219,-1.4431 7.34989,-3.0709 10.89947,-4.8773 3.54915,-1.8066 7.00575,-3.7895 10.35684,-5.9413 3.35188,-2.1525 6.59399,-4.4714 9.71419,-6.9478 3.11999,-2.4754 6.11424,-5.1054 8.97153,-7.8799 0.36722,-0.3891 0.73182,-0.7806 1.09378,-1.1746 -2.60204,-17.85957 -16.83236,-40.03755 -30.86307,-55.74238 4.76735,-8.84435 7.266,-18.7333 7.27207,-28.78069 -0.021,-2.8743 -0.24611,-5.74349 -0.6735,-8.58592 20.25731,9.18513 43.07704,26.53494 52.79848,47.36396 0.44067,-1.15171 0.86347,-2.31018 1.26827,-3.47499 1.17679,-3.80495 2.16256,-7.66636 2.95362,-11.56978 0.79154,-3.90311 1.38741,-7.84335 1.78537,-11.80598 0.39733,-3.96334 0.59619,-7.94408 0.59583,-11.92729 4.4e-4,-2.81936 -0.0989,-5.63784 -0.29791,-8.45017 -0.28228,-3.97319 -0.76309,-7.92978 -1.44064,-11.85493 -0.62776,-3.53416 -1.41449,-7.03823 -2.35779,-10.50154 -20.56165,-7.32804 -45.89823,-4.79548 -63.74906,-1.11372 -6.81835,-11.01918 -16.98234,-19.56874 -29.00647,-24.39915 18.07184,-12.93645 44.49019,-24.02091 67.37307,-22.03241 -1.38409,-1.66502 -2.8132,-3.2921 -4.28573,-4.87944 -2.77498,-2.85712 -5.6911,-5.57368 -8.73745,-8.13949 -3.04611,-2.56581 -6.21862,-4.97769 -9.50565,-7.22659 -3.28724,-2.24885 -6.68489,-4.3319 -10.18022,-6.24135 -3.49538,-1.90963 -7.08407,-3.64325 -10.75264,-5.19438 -3.66896,-1.55092 -7.41319,-2.91736 -11.21867,-4.09421 -1.42662,-0.39262 -2.86041,-0.75869 -4.30063,-1.09804 -14.14688,11.18369 -26.2293,34.57475 -32.8107,54.55552 -12.96018,0.38127 -25.4582,4.90015 -35.665394,12.89544 -2.15922,-22.12637 1.466931,-50.55807 14.646924,-69.38315 z" style="fill:url(#radialGradient6219)"/>
  </clipPath>
  <filter style="color-interpolation-filters:sRGB" id="filter925" width="1.046" height="1.05" x="-.02" y="-.03">
   <feGaussianBlur id="feGaussianBlur2" stdDeviation="2.32"/>
  </filter>
  <filter style="color-interpolation-filters:sRGB" id="filter931" width="1.023" height="1.025" x="-.01" y="-.01">
   <feGaussianBlur id="feGaussianBlur5" stdDeviation="1.16"/>
  </filter>
  <linearGradient id="linearGradient1108" x1="296" x2="296" y1="-212" y2="236" gradientUnits="userSpaceOnUse" xlink:href="#linearGradient1013"/>
  <linearGradient id="linearGradient1013">
   <stop style="stop-color:#ffffff" id="stop9" offset="0"/>
   <stop style="stop-color:#ffffff;stop-opacity:0.09803922" id="stop11" offset=".125"/>
   <stop style="stop-color:#000000;stop-opacity:0.09803922" id="stop13" offset=".925"/>
   <stop style="stop-color:#000000;stop-opacity:0.49803922" id="stop15" offset="1"/>
  </linearGradient>
  <clipPath id="clipPath1082-3" clipPathUnits="userSpaceOnUse">
   <path style="fill:#8c59d9" d="M 361.9375,-212 C 507.2348,-212 528,-191.28677 528,-46.125 V 70.125 C 528,215.28618 507.2348,236 361.9375,236 H 214.0625 C 68.7652,236 48,215.28618 48,70.125 V -46.125 C 48,-191.28677 68.7652,-212 214.0625,-212 Z"/>
  </clipPath>
 </defs>
 <g id="layer1" transform="matrix(0.86666673,0,0,0.86666673,9.5333867,-142.40002)">
  <g id="layer9">
   <path d="M 123.99993,237 A 59.999995,59.999995 0 0 1 63.999945,297 59.999995,59.999995 0 0 1 3.9999381,237 59.999995,59.999995 0 0 1 63.999945,177.00001 59.999995,59.999995 0 0 1 123.99993,237 Z" style="fill:#deddda"/>
   <rect style="fill:#d5d3cf" width="112" height="114" x="8" y="179" rx="56" ry="56"/>
   <path style="fill:#f6f5f4" d="M 123.99993,235 A 59.999995,59.999995 0 0 1 63.999945,294.99999 59.999995,59.999995 0 0 1 3.9999381,235 59.999995,59.999995 0 0 1 63.999945,175 59.999995,59.999995 0 0 1 123.99993,235 Z"/>
  </g>
 </g>
 <g transform="translate(-1.8210792e-5,1.1101464)">
  <circle style="fill:#8c59d9" cx="65" cy="61.023" r="46.8"/>
  <path style="opacity:0.1" d="M 65.000003,14.356217 A 46.800003,46.800003 0 0 0 18.2,61.15622 46.800003,46.800003 0 0 0 18.23597,62.171 46.800003,46.800003 0 0 1 65.000006,16.08955 46.800003,46.800003 0 0 1 111.76404,61.873933 46.800003,46.800003 0 0 0 111.80004,61.15622 46.800003,46.800003 0 0 0 64.999995,14.356217 Z"/>
 </g>
 <g style="enable-background:new" transform="matrix(0.5098789,0,0,0.5098789,-150.61892,-41.45608)">
  <g>
   <g>
    <g style="stroke:#ffffff;enable-background:new" transform="matrix(1.2838047,0,0,1.2838047,232.0033,1.6506319)">
     <path style="fill:#f6f5f4" d="M 91.318359 100.77539 A 46.800003 46.800003 0 0 0 94.091797 98.792969 A 46.800003 46.800003 0 0 0 97.605469 95.705078 A 46.800003 46.800003 0 0 0 97.759766 95.539062 L 67.171875 95.539062 C 55.006924 95.539062 43.775834 89.05469 37.693359 78.519531 C 31.610881 67.984373 31.610881 55.015625 37.693359 44.480469 C 43.775834 33.945311 55.006924 27.462891 67.171875 27.462891 L 67.171875 22.226562 C 53.144433 22.226562 40.17193 29.71516 33.158203 41.863281 C 26.144483 54.011402 26.144483 68.990552 33.158203 81.138672 C 40.17193 93.286792 53.144433 100.77539 67.171875 100.77539 L 91.318359 100.77539 z" transform="matrix(1.5276856,0,0,1.5276856,49.382947,62.046124)"/>
     <path style="fill:#f6f5f4" d="M 102.29883 90.302734 A 46.800003 46.800003 0 0 0 103.625 88.558594 A 46.800003 46.800003 0 0 0 105.76562 85.066406 L 67.171875 85.066406 C 57.638868 85.066406 49.060196 79.338139 45.40625 70.533203 C 41.752304 61.728273 43.754387 51.609136 50.486328 44.859375 C 57.218264 38.109623 67.331917 36.080282 76.146484 39.710938 L 78.140625 34.871094 C 74.106392 33.209423 69.842952 32.519976 65.65625 32.742188 C 58.678414 33.112545 51.914396 36.013419 46.779297 41.162109 C 38.563143 49.400021 36.110769 61.794828 40.570312 72.541016 C 45.029856 83.287213 55.537086 90.302734 67.171875 90.302734 L 102.29883 90.302734 z" transform="matrix(1.5276856,0,0,1.5276856,49.382947,62.046124)"/>
     <path style="fill:#f6f5f4" d="M 108.29883 79.830078 A 46.800003 46.800003 0 0 0 109.70898 75.962891 A 46.800003 46.800003 0 0 0 110.05859 74.591797 L 67.171875 74.591797 C 61.233841 74.591797 56.062264 70.624368 54.525391 64.888672 C 52.988517 59.152976 55.482515 53.133076 60.625 50.164062 C 65.767485 47.195049 72.230866 48.045325 76.429688 52.244141 L 80.130859 48.541016 C 76.470309 44.880472 71.545594 43.039987 66.615234 43.185547 C 63.657021 43.272888 60.697757 44.075871 58.007812 45.628906 C 50.834635 49.770347 47.323038 58.243496 49.466797 66.244141 C 51.610563 74.244785 58.889 79.830078 67.171875 79.830078 L 108.29883 79.830078 z" transform="matrix(1.5276856,0,0,1.5276856,49.382947,62.046124)"/>
    </g>
   </g>
  </g>
 </g>
 <g transform="translate(-1.8210792e-5,1.1101464)">
  <path d="M 65.000003,14.356217 A 46.800003,46.800003 0 0 0 18.2,61.15622 46.800003,46.800003 0 0 0 18.23597,62.171 46.800003,46.800003 0 0 1 65.000006,16.08955 46.800003,46.800003 0 0 1 111.76404,61.873933 46.800003,46.800003 0 0 0 111.80004,61.15622 46.800003,46.800003 0 0 0 64.999995,14.356217 Z" style="opacity:0.1"/>
 </g>
</svg>
